www/img/sunny-cloud.svg

<svg xmlns="http://www.w3.org/2000/svg" width="100" height="100" viewBox="0 0 100 100"><path fill-rule="evenodd" clip-rule="evenodd" d="M79.941 43.641h-4c-1.104 0-2-.895-2-2 0-1.104.896-1.998 2-1.998h4c1.104 0 2 .895 2 1.998 0 1.105-.896 2-2 2zm-7.857-13.312c-.781.781-2.047.781-2.828 0-.781-.78-.781-2.047 0-2.827l2.828-2.828c.781-.781 2.047-.781 2.828 0 .781.78.781 2.047 0 2.828l-2.828 2.827zm-2.947 15.607c1.749 2.086 2.806 4.77 2.806 7.705 0 6.625-5.372 11.998-11.999 11.998h-15.998c-8.835 0-15.998-7.162-15.998-15.998s7.163-15.998 15.998-15.998c1.572 0 3.09.232 4.523.654 2.195-2.827 5.618-4.654 9.475-4.654 6.627 0 11.999 5.373 11.999 11.998-.001 1.515-.294 2.961-.806 4.295zm-37.19 3.705c0 6.627 5.371 11.998 11.998 11.998h15.998c4.418 0 7.999-3.582 7.999-7.998 0-4.418-3.581-8-7.999-8-1.6 0-3.083.482-4.333 1.291-1.231-5.316-5.974-9.289-11.665-9.289-6.627 0-11.998 5.371-11.998 11.998zm25.996-15.998c-2.212 0-4.215.898-5.662 2.349 2.34 1.436 4.285 3.453 5.629 5.854.664-.113 1.337-.205 2.033-.205 2.125 0 4.119.559 5.85 1.527.096-.494.15-1.004.15-1.527 0-4.416-3.582-7.998-8-7.998zm0-8c-1.104 0-1.999-.895-1.999-1.999v-3.999c0-1.105.896-2 1.999-2 1.105 0 2 .895 2 2v3.999c0 1.105-.894 1.999-2 1.999zm-14.14 4.686l-2.827-2.827c-.781-.781-.781-2.048 0-2.828.78-.781 2.047-.781 2.827 0l2.828 2.828c.781.78.781 2.047 0 2.827-.78.781-2.047.781-2.828 0z"/></svg>

<?xml version="1.0" encoding="utf-8"?>
<!-- Generator: Adobe Illustrator 15.1.0, SVG Export Plug-In . SVG Version: 6.00 Build 0)  -->
<!DOCTYPE svg PUBLIC "-//W3C//DTD SVG 1.1//EN" "http://www.w3.org/Graphics/SVG/1.1/DTD/svg11.dtd">
<svg version="1.1" id="Layer_1" xmlns="http://www.w3.org/2000/svg" xmlns:xlink="http://www.w3.org/1999/xlink" x="0px" y="0px"
	 width="100px" height="100px" viewBox="0 0 100 100" enable-background="new 0 0 100 100" xml:space="preserve">
<path fill-rule="evenodd" clip-rule="evenodd" d="M79.941,43.641h-4c-1.104,0-2-0.895-2-2c0-1.104,0.896-1.998,2-1.998h4
	c1.104,0,2,0.895,2,1.998C81.941,42.746,81.045,43.641,79.941,43.641z M72.084,30.329c-0.781,0.781-2.047,0.781-2.828,0
	c-0.781-0.78-0.781-2.047,0-2.827l2.828-2.828c0.781-0.781,2.047-0.781,2.828,0c0.781,0.78,0.781,2.047,0,2.828L72.084,30.329z
	 M69.137,45.936L69.137,45.936c1.749,2.086,2.806,4.77,2.806,7.705c0,6.625-5.372,11.998-11.999,11.998c-2.775,0-12.801,0-15.998,0
	c-8.835,0-15.998-7.162-15.998-15.998s7.163-15.998,15.998-15.998c1.572,0,3.09,0.232,4.523,0.654
	c2.195-2.827,5.618-4.654,9.475-4.654c6.627,0,11.999,5.373,11.999,11.998C69.942,43.156,69.649,44.602,69.137,45.936z
	 M31.947,49.641c0,6.627,5.371,11.998,11.998,11.998c3.616,0,12.979,0,15.998,0c4.418,0,7.999-3.582,7.999-7.998
	c0-4.418-3.581-8-7.999-8c-1.6,0-3.083,0.482-4.333,1.291c-1.231-5.316-5.974-9.289-11.665-9.289
	C37.318,37.643,31.947,43.014,31.947,49.641z M57.943,33.643c-2.212,0-4.215,0.898-5.662,2.349c2.34,1.436,4.285,3.453,5.629,5.854
	c0.664-0.113,1.337-0.205,2.033-0.205c2.125,0,4.119,0.559,5.85,1.527l0,0c0.096-0.494,0.15-1.004,0.15-1.527
	C65.943,37.225,62.361,33.643,57.943,33.643z M57.943,25.643c-1.104,0-1.999-0.895-1.999-1.999v-3.999c0-1.105,0.896-2,1.999-2
	c1.105,0,2,0.895,2,2v3.999C59.943,24.749,59.049,25.643,57.943,25.643z M43.803,30.329l-2.827-2.827
	c-0.781-0.781-0.781-2.048,0-2.828c0.78-0.781,2.047-0.781,2.827,0l2.828,2.828c0.781,0.78,0.781,2.047,0,2.827
	C45.851,31.11,44.584,31.11,43.803,30.329z"/>
</svg>
